X:173
T: Fekete tyúk mind megette a meggyet
O: Jávárdipataka, 1962
Q: "Tempo giusto" 1/4=116
M:4/4
L:1/4
K:F
d/d/e/^f/ g/g/d/d/ | d<c B z | 
d/d/e/^f/ g/g/d/d/ | d<c B z | 
d/d/d/B/ d/d/c/(B//A//) | G<A B z | 
d/d/d/B/ d/B/c/(B//A//) | G<G G z | 

